styles/1/Numix/32/actions/orange-document-open.svg

<?xml version="1.0" encoding="UTF-8" standalone="no"?>
<!-- Created with Inkscape (http://www.inkscape.org/) -->

<svg
   xmlns:dc="http://purl.org/dc/elements/1.1/"
   xmlns:cc="http://creativecommons.org/ns#"
   xmlns:rdf="http://www.w3.org/1999/02/22-rdf-syntax-ns#"
   xmlns:svg="http://www.w3.org/2000/svg"
   xmlns="http://www.w3.org/2000/svg"
   xmlns:sodipodi="http://sodipodi.sourceforge.net/DTD/sodipodi-0.dtd"
   xmlns:inkscape="http://www.inkscape.org/namespaces/inkscape"
   id="svg3396"
   height="32"
   width="32"
   version="1.0"
   inkscape:version="0.91 r"
   sodipodi:docname="orange-document-open.svg">
  <metadata
     id="metadata64">
    <rdf:RDF>
      <cc:Work
         rdf:about="">
        <dc:format>image/svg+xml</dc:format>
        <dc:type
           rdf:resource="http://purl.org/dc/dcmitype/StillImage" />
        <dc:title />
      </cc:Work>
    </rdf:RDF>
  </metadata>
  <sodipodi:namedview
     pagecolor="#ffffff"
     bordercolor="#666666"
     borderopacity="1"
     objecttolerance="10"
     gridtolerance="10"
     guidetolerance="10"
     inkscape:pageopacity="0"
     inkscape:pageshadow="2"
     inkscape:window-width="1366"
     inkscape:window-height="747"
     id="namedview62"
     showgrid="true"
     inkscape:zoom="8.396826"
     inkscape:cx="-10.408877"
     inkscape:cy="3.5281233"
     inkscape:window-x="0"
     inkscape:window-y="21"
     inkscape:window-maximized="1"
     inkscape:current-layer="svg3396">
    <inkscape:grid
       type="xygrid"
       id="grid3906"
       empspacing="5"
       visible="true"
       enabled="true"
       snapvisiblegridlinesonly="true" />
  </sodipodi:namedview>
  <defs
     id="defs3398" />
  <path
     style="font-size:medium;font-style:normal;font-variant:normal;font-weight:normal;font-stretch:normal;text-indent:0;text-align:start;text-decoration:none;line-height:normal;letter-spacing:normal;word-spacing:normal;text-transform:none;direction:ltr;block-progression:tb;writing-mode:lr-tb;text-anchor:start;baseline-shift:baseline;color:#000000;fill:#f57c00;fill-opacity:1;fill-rule:nonzero;stroke:none;stroke-width:2.28612947;marker:none;visibility:visible;display:inline;overflow:visible;enable-background:accumulate;font-family:Sans;-inkscape-font-specification:Sans;opacity:0.4"
     d="m 1,16 30,0 0,-8.84375 C 31.006984,6.5489584 30.451042,5.9930157 29.84375,6 L 19,6 19,5.15625 C 19.0069,4.5593523 18.471863,4.0094527 17.875,4 L 2.15625,4 C 2.114625,3.99772 2.072875,3.99772 2.03125,4 1.4665378,4.0554827 0.99079302,4.5888935 1,5.15625 z"
     id="path3912"
     inkscape:connector-curvature="0"
     sodipodi:nodetypes="ccccccccccc" />
  <path
     style="fill:#eae7d1;fill-opacity:1"
     d="M 4,3 28,3 28,16 4,16 z"
     id="path6"
     inkscape:connector-curvature="0" />
  <path
     style="fill:#7a7a68;fill-opacity:1"
     inkscape:connector-curvature="0"
     id="path20"
     d="M 6,7 26,7 26,8 6,8 z" />
  <path
     inkscape:connector-curvature="0"
     style="fill:#7a7a68;fill-opacity:1"
     d="M 17.666667,13 C 18.47584,13 19,13.451256 19,14 l 7,0 0,-1 z"
     id="path16"
     sodipodi:nodetypes="ccccc" />
  <path
     style="font-size:medium;font-style:normal;font-variant:normal;font-weight:normal;font-stretch:normal;text-indent:0;text-align:start;text-decoration:none;line-height:normal;letter-spacing:normal;word-spacing:normal;text-transform:none;direction:ltr;block-progression:tb;writing-mode:lr-tb;text-anchor:start;baseline-shift:baseline;color:#000000;fill:#f57c00;fill-opacity:1;fill-rule:nonzero;stroke:none;stroke-width:2.28612947;marker:none;visibility:visible;display:inline;overflow:visible;enable-background:accumulate;font-family:Sans;-inkscape-font-specification:Sans"
     d="M 1,13 1,26.84375 C 0.99301567,27.451042 1.5489584,28.006984 2.15625,28 l 27.6875,0 C 30.451042,28.007 31.006984,27.451042 31,26.84375 L 31,15 l -2,0 -6,0 -4,0 0,-1 c 0,0 0,-1 -1,-1 L 3,13 z"
     id="path3801"
     inkscape:connector-curvature="0"
     sodipodi:nodetypes="ccccccccccscc" />
  <path
     style="fill:#7a7a68;fill-opacity:1"
     inkscape:connector-curvature="0"
     id="path20-7"
     d="m 6,9 20,0 0,1 -20,0 z" />
  <path
     style="fill:#7a7a68;fill-opacity:1"
     inkscape:connector-curvature="0"
     id="path20-7-9"
     d="m 6,11 20,0 0,1 -20,0 z" />
  <path
     style="fill:#7a7a68;fill-opacity:1"
     inkscape:connector-curvature="0"
     id="path20-1"
     d="M 6,5 26,5 26,6 6,6 z" />
</svg>

<!-- Created with Inkscape (http://www.inkscape.org/) -->
<svg xmlns="http://www.w3.org/2000/svg" viewBox="0 0 32 32">
 <path d="m 1 16 30 0 0 -8.844 c 0.007 -0.607 -0.549 -1.163 -1.156 -1.156 l -10.844 0 0 -0.844 c 0.007 -0.597 -0.528 -1.147 -1.125 -1.156 l -15.719 0 c -0.042 -0.002 -0.083 -0.002 -0.125 0 -0.565 0.055 -1.04 0.589 -1.031 1.156 z" style="visibility:visible;fill:#f57c00;opacity:0.4;fill-opacity:1;stroke:none;display:inline;color:#000;fill-rule:nonzero"/>
 <path d="m 4 3 24 0 0 13 -24 0 z" style="fill:#eae7d1;fill-opacity:1"/>
 <path d="M 6,7 26,7 26,8 6,8 z" style="fill:#7a7a68;fill-opacity:1"/>
 <path d="m 17.667 13 c 0.809 0 1.333 0.451 1.333 1 l 7 0 0 -1 z" style="fill:#7a7a68;fill-opacity:1"/>
 <path d="m 1 13 0 13.844 c -0.007 0.607 0.549 1.163 1.156 1.156 l 27.688 0 c 0.607 0.007 1.163 -0.549 1.156 -1.156 l 0 -11.844 l -2 0 -6 0 -4 0 0 -1 c 0 0 0 -1 -1 -1 l -15 0 z" style="visibility:visible;fill:#f57c00;fill-opacity:1;stroke:none;display:inline;color:#000;fill-rule:nonzero"/>
 <path d="m 6 9 20 0 0 1 -20 0 z" style="fill:#7a7a68;fill-opacity:1"/>
 <path d="m 6 11 20 0 0 1 -20 0 z" style="fill:#7a7a68;fill-opacity:1"/>
 <path d="M 6,5 26,5 26,6 6,6 z" style="fill:#7a7a68;fill-opacity:1"/>
</svg>
